X:1
T:Title
%%score 1 2 3
L:1/8
M:2/2
K:F
V:1 treble-8 nm="Part_1"
V:2 treble-8 nm="Part_2"
V:3 bass nm="Part_3"
V:1
 z8 | z8 | z4 d4 | e4 f4 | g6 f2 | e3 d d4- | d4 c4 | d4 d4 | d4 d4 | c6 BA | B3 c B2 AG | %11
 F2 E2 F4 | G8 | z8 | G4 A4 | B4 G4 | d4 e4 | f4 g4- | g2 a2 b4- | b2 a2 a4- | a2 g2 f4- | f4 g4 | %22
 a4 b4- | b2 a2 g4- | g2 fe f4 | g8 | z4 g4 | g4 a4 | b4 b4 | b4 a4 | g6 f2 | e3 d d4 | %32
 d2 B2 c2 BA | G2 B2 A4 | G2 d4 cd | e2 d4 cB | !fermata!A8 | B6 AG | A2 B2 c2 d2- | dG B2 A4 | %40
 G8 | z8 | z8 | z8 | G4 B4 | c4 d4- | d4 G4 | A4 B4 | G8 | F4 G4- | G2 A2 B3 c | B2 G2 A4 | G8 | %53
 z4 f4 | g4 a4 | b4 b4 | a6 gf | e4 d4 | z4 c4 | d2 B4 G2 | A4 G4 | d6 e2 | f4 d4- | d2 e2 d2 cB | %64
 A4 B2 A2- | A2 d4 c2 |[M:4/2] d16 |] %67
V:2
 z8 | z8 | z8 | z8 | z8 | z8 | z8 | z8 | z4 D4 | E4 F4 | G4 G4 | A4 A4 | B8 | A4 G4- | G2 E2 F4 | %15
 G4 z4 | z4 G4 | A4 B4 | G4 d4 | e4 f4 | d6 cB | A4 G4 | F4 G4 | B8 | A8 | G8- | G8 | z4 F4 | %28
 G6 G2 | G4 D4 | E6 F2 | G8 | G4 A4 | B2 d4 c2 | B2 G2 A4 | G2 G4 E2 | !fermata!F8 | z8 | z8 | z8 | %40
 z4 d4 | B2 c4 A2 | G4 B4 | c4 d4- | d4 G4 | A4 B4 | G8 | z4 d4- | d2 c2 B2 AG | A4 G2 B2- | %50
 B2 A2 G2 FE | F2 G4 F2 | G2 d4 cd | edcB A4 | z4 d4 | d4 e4 | f6 ed | c4 d2 B2- | B2 G2 A4 | %59
 G4 z4 | c4 B4- | B2 A2 B2 AG | A2 B3 c d2- | d2 c2 B2 AG | F4 G2 A2- | A2 F2 E4 |[M:4/2] D16 |] %67
V:3
 z4 D,4 | E,4 F,4 | G,8 | G,4 A,4 | B,4 G,4- | G,4 F,4 | E,8 | D,8- | D,4 B,,4 | A,,8 | %10
 G,,6 F,,E,, | D,,8 | z4 E,,4 | F,,4 G,,2 B,,2- | B,,2 C,2 A,,4 | G,,8- | G,,8 | z8 | G,,8- | %19
 G,,4 D,4- | D,8 | F,4 E,4 | D,4 B,,4 | G,,8 | z4 D,4 | E,6 D,C, | B,,2 C,3 D, E,2- | %27
 E,D,C,B,, A,,4 | G,,8 | z8 | C,6 A,,2 | G,,6 B,,2- | B,,2 A,,G,, F,,4 | z2 G,,2 A,,2 F,,2 | %34
 z2 G,,2 F,,4 | G,,3 A,, B,,2 C,2 | !fermata!D,8 | D,6 E,2 | F,2 G,2 A,2 B,2- | B,2 A,G, F,3 E, | %40
 G,6 D,2 | E,4 F,4 | G,4 G,,4 | A,,4 B,,4 | G,,8 | z8 | G,,4 B,,4 | A,,4 G,,4- | G,,4 B,,4 | %49
 F,,4 E,,4 | G,,8 | D,,8 | G,,4 B,,4 | C,4 D,4 | E,4 F,4 | G,8 | D,8 | A,,4 B,,4 | G,,4 F,,4 | %59
 z2 G,,2 E,,2 G,,2- | G,,2 F,,2 G,,2 B,,2- | B,,A,, F,,2 G,,3 F,, | D,,8 | G,,8 | D,8 | A,,8 | %66
[M:4/2] D,,16 |] %67

